Newaita-dark/actions/16/user-group-delete.svg

<?xml version="1.0" encoding="UTF-8"?>
<svg xmlns="http://www.w3.org/2000/svg" xmlns:xlink="http://www.w3.org/1999/xlink" width="16pt" height="16pt" viewBox="0 0 16 16" version="1.1">
<g id="surface1">
<path style=" stroke:none;fill-rule:nonzero;fill:rgb(74.117649%,74.117649%,74.117649%);fill-opacity:0.996078;" d="M 11.246094 6.738281 C 9.964844 6.738281 8.929688 7.773438 8.929688 9.054688 C 8.929688 10.339844 9.964844 11.371094 11.246094 11.371094 C 12.527344 11.371094 13.5625 10.339844 13.5625 9.054688 C 13.5625 7.773438 12.527344 6.738281 11.246094 6.738281 Z M 11.246094 7.734375 C 11.980469 7.734375 12.570312 8.324219 12.570312 9.054688 C 12.570312 9.789062 11.980469 10.378906 11.246094 10.378906 C 10.511719 10.378906 9.921875 9.789062 9.921875 9.054688 C 9.921875 8.324219 10.511719 7.734375 11.246094 7.734375 Z M 11.246094 7.734375 "/>
<path style=" stroke:none;fill-rule:nonzero;fill:rgb(74.117649%,74.117649%,74.117649%);fill-opacity:1;" d="M 9.542969 11.289062 C 8.199219 11.703125 7.277344 12.59375 7.277344 13.628906 L 7.277344 13.6875 L 7.304688 13.6875 C 7.285156 13.738281 7.277344 13.792969 7.277344 13.851562 L 7.277344 14.84375 C 7.277344 14.859375 7.277344 14.875 7.277344 14.890625 C 7.277344 14.902344 7.277344 14.914062 7.277344 14.925781 C 7.277344 15.15625 7.496094 15.339844 7.773438 15.339844 L 14.71875 15.339844 C 14.992188 15.339844 15.214844 15.15625 15.214844 14.925781 C 15.214844 14.914062 15.214844 14.902344 15.210938 14.890625 C 15.214844 14.875 15.214844 14.859375 15.214844 14.84375 L 15.214844 13.851562 C 15.214844 13.792969 15.203125 13.738281 15.1875 13.6875 L 15.214844 13.6875 L 15.214844 13.628906 C 15.214844 12.59375 14.289062 11.703125 12.949219 11.289062 C 12.527344 11.746094 11.921875 12.03125 11.246094 12.03125 C 10.570312 12.03125 9.964844 11.746094 9.542969 11.289062 Z M 9.574219 12.316406 C 9.996094 12.753906 10.589844 13.023438 11.246094 13.023438 C 11.902344 13.023438 12.496094 12.753906 12.917969 12.316406 C 13.707031 12.613281 14.222656 13.113281 14.222656 13.6875 L 14.25 13.6875 C 14.234375 13.738281 14.222656 13.792969 14.222656 13.851562 L 14.222656 14.511719 L 8.269531 14.511719 L 8.269531 13.851562 C 8.269531 13.792969 8.257812 13.738281 8.242188 13.6875 L 8.269531 13.6875 C 8.269531 13.113281 8.785156 12.613281 9.574219 12.316406 Z M 9.574219 12.316406 "/>
<path style=" stroke:none;fill-rule:nonzero;fill:rgb(93.725491%,32.549021%,31.37255%);fill-opacity:0.996078;" d="M 4.628906 0.785156 C 3.347656 0.785156 2.316406 1.820312 2.316406 3.101562 C 2.316406 4.382812 3.347656 5.417969 4.628906 5.417969 C 5.914062 5.417969 6.945312 4.382812 6.945312 3.101562 C 6.945312 1.820312 5.914062 0.785156 4.628906 0.785156 Z M 4.628906 1.777344 C 5.363281 1.777344 5.953125 2.367188 5.953125 3.101562 C 5.953125 3.835938 5.363281 4.425781 4.628906 4.425781 C 3.898438 4.425781 3.308594 3.835938 3.308594 3.101562 C 3.308594 2.367188 3.898438 1.777344 4.628906 1.777344 Z M 4.628906 1.777344 "/>
<path style=" stroke:none;fill-rule:nonzero;fill:rgb(93.725491%,32.549021%,31.37255%);fill-opacity:1;" d="M 2.925781 5.335938 C 1.585938 5.75 0.660156 6.640625 0.660156 7.675781 L 0.660156 7.734375 L 0.691406 7.734375 C 0.671875 7.785156 0.660156 7.839844 0.660156 7.898438 L 0.660156 8.890625 C 0.660156 8.90625 0.664062 8.921875 0.664062 8.933594 C 0.664062 8.949219 0.660156 8.960938 0.660156 8.972656 C 0.660156 9.203125 0.882812 9.386719 1.15625 9.386719 L 8.105469 9.386719 C 8.378906 9.386719 8.601562 9.203125 8.601562 8.972656 C 8.601562 8.960938 8.597656 8.949219 8.597656 8.933594 C 8.597656 8.921875 8.601562 8.90625 8.601562 8.890625 L 8.601562 7.898438 C 8.601562 7.839844 8.589844 7.785156 8.570312 7.734375 L 8.601562 7.734375 L 8.601562 7.675781 C 8.601562 6.640625 7.675781 5.75 6.332031 5.335938 C 5.910156 5.792969 5.304688 6.078125 4.628906 6.078125 C 3.957031 6.078125 3.351562 5.792969 2.925781 5.335938 Z M 2.960938 6.363281 C 3.382812 6.800781 3.972656 7.070312 4.628906 7.070312 C 5.289062 7.070312 5.878906 6.800781 6.300781 6.363281 C 7.089844 6.660156 7.609375 7.160156 7.609375 7.734375 L 7.636719 7.734375 C 7.617188 7.785156 7.609375 7.839844 7.609375 7.898438 L 7.609375 8.558594 L 1.652344 8.558594 L 1.652344 7.898438 C 1.652344 7.839844 1.644531 7.785156 1.625 7.734375 L 1.652344 7.734375 C 1.652344 7.160156 2.171875 6.660156 2.960938 6.363281 Z M 2.960938 6.363281 "/>
</g>
</svg>

<svg xmlns="http://www.w3.org/2000/svg" width="16pt" height="16pt" viewBox="0 0 16 16"><path d="M11.246 6.738A2.314 2.314 0 0 0 8.93 9.055a2.311 2.311 0 0 0 2.316 2.316 2.311 2.311 0 0 0 2.316-2.316 2.314 2.314 0 0 0-2.316-2.317zm0 .996c.734 0 1.324.59 1.324 1.32a1.32 1.32 0 0 1-1.324 1.325 1.32 1.32 0 0 1-1.324-1.324c0-.73.59-1.32 1.324-1.32zm0 0" fill="#bdbdbd" fill-opacity=".996"/><path d="M9.543 11.29c-1.344.413-2.266 1.304-2.266 2.339v.059h.028a.452.452 0 0 0-.028.164V14.926c0 .23.22.414.496.414h6.946c.273 0 .496-.184.496-.414 0-.012 0-.024-.004-.035.004-.016.004-.032.004-.047v-.992a.555.555 0 0 0-.027-.165h.027v-.058c0-1.035-.926-1.926-2.266-2.34a2.307 2.307 0 0 1-1.703.742 2.307 2.307 0 0 1-1.703-.742zm.031 1.026a2.314 2.314 0 0 0 1.672.707c.656 0 1.25-.27 1.672-.707.789.297 1.305.797 1.305 1.371h.027a.555.555 0 0 0-.027.165v.66H8.27v-.66a.555.555 0 0 0-.028-.165h.028c0-.574.515-1.074 1.304-1.37zm0 0" fill="#bdbdbd"/><path d="M4.629.785a2.31 2.31 0 0 0-2.313 2.317A2.31 2.31 0 0 0 4.63 5.418a2.311 2.311 0 0 0 2.316-2.316A2.311 2.311 0 0 0 4.63.785zm0 .992c.734 0 1.324.59 1.324 1.325A1.32 1.32 0 0 1 4.63 4.426c-.73 0-1.32-.59-1.32-1.324 0-.735.59-1.325 1.32-1.325zm0 0" fill="#ef5350" fill-opacity=".996"/><path d="M2.926 5.336C1.586 5.75.66 6.64.66 7.676v.058h.031a.454.454 0 0 0-.03.164v.993c0 .015.003.03.003.043 0 .015-.004.027-.004.039 0 .23.223.414.496.414h6.95c.273 0 .496-.184.496-.414 0-.012-.004-.024-.004-.04 0-.011.004-.027.004-.042v-.993a.454.454 0 0 0-.032-.164h.032v-.058c0-1.035-.926-1.926-2.27-2.34a2.307 2.307 0 0 1-1.703.742 2.32 2.32 0 0 1-1.703-.742zm.035 1.027a2.305 2.305 0 0 0 1.668.707c.66 0 1.25-.27 1.672-.707.789.297 1.308.797 1.308 1.371h.028a.452.452 0 0 0-.028.164v.66H1.652v-.66a.452.452 0 0 0-.027-.164h.027c0-.574.52-1.074 1.309-1.37zm0 0" fill="#ef5350"/></svg>
